dist/images/ico/ico_sprites_check.svg

<svg width="218" height="29" viewBox="0 0 218 29" fill="none" xmlns="http://www.w3.org/2000/svg">
<g clip-path="url(#clip0_740_127414)">
<path d="M14 5.75977C9.032 5.75977 5 9.79177 5 14.7598C5 19.7278 9.032 23.7598 14 23.7598C18.968 23.7598 23 19.7278 23 14.7598C23 9.79177 18.968 5.75977 14 5.75977ZM11.561 18.6208L8.33 15.3898C7.979 15.0388 7.979 14.4718 8.33 14.1208C8.681 13.7698 9.248 13.7698 9.599 14.1208L12.2 16.7128L18.392 10.5208C18.743 10.1698 19.31 10.1698 19.661 10.5208C20.012 10.8718 20.012 11.4388 19.661 11.7898L12.83 18.6208C12.488 18.9718 11.912 18.9718 11.561 18.6208Z" fill="#D2D2D1"/>
<path d="M52 5.75977C47.032 5.75977 43 9.79177 43 14.7598C43 19.7278 47.032 23.7598 52 23.7598C56.968 23.7598 61 19.7278 61 14.7598C61 9.79177 56.968 5.75977 52 5.75977ZM49.561 18.6208L46.33 15.3898C45.979 15.0388 45.979 14.4718 46.33 14.1208C46.681 13.7698 47.248 13.7698 47.599 14.1208L50.2 16.7128L56.392 10.5208C56.743 10.1698 57.31 10.1698 57.661 10.5208C58.012 10.8718 58.012 11.4388 57.661 11.7898L50.83 18.6208C50.488 18.9718 49.912 18.9718 49.561 18.6208Z" fill="white"/>
<path d="M90 5.75977C85.032 5.75977 81 9.79177 81 14.7598C81 19.7278 85.032 23.7598 90 23.7598C94.968 23.7598 99 19.7278 99 14.7598C99 9.79177 94.968 5.75977 90 5.75977ZM87.561 18.6208L84.33 15.3898C83.979 15.0388 83.979 14.4718 84.33 14.1208C84.681 13.7698 85.248 13.7698 85.599 14.1208L88.2 16.7128L94.392 10.5208C94.743 10.1698 95.31 10.1698 95.661 10.5208C96.012 10.8718 96.012 11.4388 95.661 11.7898L88.83 18.6208C88.488 18.9718 87.912 18.9718 87.561 18.6208Z" fill="#253981"/>
<path d="M128 7.75977C124.136 7.75977 121 10.8958 121 14.7598C121 18.6238 124.136 21.7598 128 21.7598C131.864 21.7598 135 18.6238 135 14.7598C135 10.8958 131.864 7.75977 128 7.75977ZM126.103 17.7628L123.59 15.2498C123.317 14.9768 123.317 14.5358 123.59 14.2628C123.863 13.9898 124.304 13.9898 124.577 14.2628L126.6 16.2788L131.416 11.4628C131.689 11.1898 132.13 11.1898 132.403 11.4628C132.676 11.7358 132.676 12.1768 132.403 12.4498L127.09 17.7628C126.824 18.0358 126.376 18.0358 126.103 17.7628Z" fill="#2F7AD3"/>
<path d="M166 7.75977C162.136 7.75977 159 10.8958 159 14.7598C159 18.6238 162.136 21.7598 166 21.7598C169.864 21.7598 173 18.6238 173 14.7598C173 10.8958 169.864 7.75977 166 7.75977ZM164.103 17.7628L161.59 15.2498C161.317 14.9768 161.317 14.5358 161.59 14.2628C161.863 13.9898 162.304 13.9898 162.577 14.2628L164.6 16.2788L169.416 11.4628C169.689 11.1898 170.13 11.1898 170.403 11.4628C170.676 11.7358 170.676 12.1768 170.403 12.4498L165.09 17.7628C164.824 18.0358 164.376 18.0358 164.103 17.7628Z" fill="#FF6859"/>
<path d="M204 0.759766C196.272 0.759766 190 7.03177 190 14.7598C190 22.4878 196.272 28.7598 204 28.7598C211.728 28.7598 218 22.4878 218 14.7598C218 7.03177 211.728 0.759766 204 0.759766ZM200.206 20.7658L195.18 15.7398C194.634 15.1938 194.634 14.3118 195.18 13.7658C195.726 13.2198 196.608 13.2198 197.154 13.7658L201.2 17.7978L210.832 8.16577C211.378 7.61977 212.26 7.61977 212.806 8.16577C213.352 8.71177 213.352 9.59377 212.806 10.1398L202.18 20.7658C201.648 21.3118 200.752 21.3118 200.206 20.7658Z" fill="white"/>
</g>
<defs>
<clipPath id="clip0_740_127414">
<rect y="0.759766" width="218" height="28" rx="5" fill="white"/>
</clipPath>
</defs>
</svg>

<svg width="218" height="29" fill="none" xmlns="http://www.w3.org/2000/svg"><g clip-path="url(#clip0_740_127414)"><path d="M14 5.76c-4.968 0-9 4.032-9 9s4.032 9 9 9 9-4.032 9-9-4.032-9-9-9zm-2.439 12.86L8.33 15.39a.896.896 0 111.269-1.27l2.601 2.593 6.192-6.192a.896.896 0 111.269 1.269l-6.831 6.83a.896.896 0 01-1.269 0z" fill="#D2D2D1"/><path d="M52 5.76c-4.968 0-9 4.032-9 9s4.032 9 9 9 9-4.032 9-9-4.032-9-9-9zm-2.439 12.86l-3.231-3.23a.896.896 0 111.269-1.27l2.601 2.593 6.192-6.192a.896.896 0 111.269 1.269l-6.831 6.83a.896.896 0 01-1.269 0z" fill="#fff"/><path d="M90 5.76c-4.968 0-9 4.032-9 9s4.032 9 9 9 9-4.032 9-9-4.032-9-9-9zm-2.439 12.86l-3.231-3.23a.896.896 0 111.269-1.27l2.601 2.593 6.192-6.192a.896.896 0 111.269 1.269l-6.831 6.83a.896.896 0 01-1.269 0z" fill="#253981"/><path d="M128 7.76c-3.864 0-7 3.136-7 7s3.136 7 7 7 7-3.136 7-7-3.136-7-7-7zm-1.897 10.003l-2.513-2.513a.697.697 0 11.987-.987l2.023 2.016 4.816-4.816a.697.697 0 11.987.987l-5.313 5.313a.697.697 0 01-.987 0z" fill="#2F7AD3"/><path d="M166 7.76c-3.864 0-7 3.136-7 7s3.136 7 7 7 7-3.136 7-7-3.136-7-7-7zm-1.897 10.003l-2.513-2.513a.697.697 0 11.987-.987l2.023 2.016 4.816-4.816a.697.697 0 11.987.987l-5.313 5.313a.697.697 0 01-.987 0z" fill="#FF6859"/><path d="M204 .76c-7.728 0-14 6.272-14 14s6.272 14 14 14 14-6.272 14-14-6.272-14-14-14zm-3.794 20.006l-5.026-5.026a1.394 1.394 0 010-1.974 1.394 1.394 0 011.974 0l4.046 4.032 9.632-9.632a1.394 1.394 0 011.974 0 1.394 1.394 0 010 1.974L202.18 20.766a1.394 1.394 0 01-1.974 0z" fill="#fff"/></g><defs><clipPath id="clip0_740_127414"><rect y=".76" width="218" height="28" rx="5" fill="#fff"/></clipPath></defs></svg>
